X:1
T:God Hath Sent His Angels
T:James Cutler Dunn Parker  (1828-1916)
T:God Hath Sent His Angels
T:Courtesy of the Cyber Hymnal&amp;#8482;
T:Courtesy of the Cyber Hymnal&amp;#8482;
C:James Cutler Dunn Parker  (1828-1916)
Z:Courtesy of the Cyber Hymnal&#8482;
%%score ( 1 2 ) ( 3 4 )
L:1/8
M:4/4
K:C
V:1 treble 
V:2 treble 
V:3 bass 
V:4 bass 
V:1
 G3 E C2 E2 | (G2 c2) G4 | [EG]3 [Ec] [Ge]2 [Fd]2 | [Ec]8 | A3 E C2 E2 | (A2 c2) A4 | %6
w: 1.~God hath sent His|earth * a-|joy- ful tid- ings|to|the sons of men;|Christ- * mas|
w: 2.~In the dread- ful|Lord * was|faith- ful an- gels|ga-|thered at His side;|gar- * den,|
w: 3.~Yet the Christ they|same * Christ|light and dark- ness,|did|His Fa- ther’s will;|sert- * ed,|
w: 4.~God has still His|at * His|faith- ful child- ren,|like|their faith- ful Lord;|sor- * row,|
 [CE]3 [CA] [Ec]2 [DB]2 | [CA]8 | [CA]3 [CD] [CB]2 [CA]2 | ([B,G]2 [^A,E]2) [B,D]4 | %10
w: ly way, Now be-|side|the tomb door sit|on * Eas-|
w: and care Bowed Him|down|with an- guish, they|were * with|
w: the sky, Since He|passed|from out it, in-|to * vic-|
w: in strife, Open- ing|wide|the tomb doors, lead-|ing * in-|
 [CE]3 [D^F] [DG]2 [CE]2 | [B,D]8 | [CD]3 [Cc] [CB]2 [CA]2 | (G2 ^F2) [^A,E]4 | %14
w: ter day. * *||||
w: Him there. * *||||
w: to- ry. * *||||
w: to life. * *||||
 [B,D]2 [B,G]2 [CA]3 [B,G] | [B,G]8 ||"^Refrain" G3 E (CD)(EF) | (G2 c2) G4 | %18
w: ||||
w: ||||
w: ||||
w: ||||
 [EG]3 [Ec] [Ge]2 [Fd]2 | [Ec]8 | [Ge]3 [Ge] [Ed]2 [Ed]2 | [Fc]4 [FA]4 | [Ec]3 [CE] [CE]2 [B,D]2 | %23
w: |||||
w: |||||
w: |||||
w: |||||
 C8 |] %24
w: |
w: |
w: |
w: |
V:2
 G3 E C2 E2 | G2 c2 G4 | x8 | x8 | A3 E C2 E2 | A2 c2 A4 | x8 | x8 | x8 | x8 | x8 | x8 | x8 | %13
w: an- gels to the|gain, Bring- ing|||They who first at|thronged the heaven-||||||||
w: de- sert, where the|tried, There the|||And when, in the|grief and pain||||||||
w: hon- or is the|still Who, in|||And the tomb, de-|shin- eth like||||||||
w: an- gels, help- ing|word, All His|||Sooth- ing them in|arm- ing them||||||||
 B,4 x4 | x8 | x8 || G3 E x4 | G2 c2 G4 | x8 | x8 | x8 | x8 | x8 | C8 |] %24
w: |||||||||||
w: |||||||||||
w: |||||||||||
w: |||||||||||
V:3
 G,3 E, C,2 E,2 | (G,2 C2) G,4 | [G,C]3 [G,C] [G,C]2 [G,B,]2 | [C,C]8 | A,3 E, C,2 E,2 | %5
w: ~ ~ ~ ~|~ * ~|~ ~ ~ ~|~|~ ~ ~ ~|
 (A,2 C2) A,4 | [E,A,]3 [E,A,] [E,A,]2 [E,^G,]2 | [A,,A,]8 | [D,^F,]3 [D,F,] [D,F,]2 [D,F,]2 | %9
w: ~ * ~|~ ~ ~ ~|~|~ ~ ~ ~|
 [G,,G,]4 [G,,G,]4 | [C,G,]3 [C,A,] [B,,G,]2 [C,G,]2 | [G,,G,]8 | %12
w: ~ ~|~ ~ An- gels,|sing|
 [D,^F,]3 [D,F,] [D,F,]2 [^D,F,]2 | [E,G,]4 [^C,G,]4 | [D,G,]2 [D,G,]2 [D,^F,]3 [G,,G,] | %15
w: His tri- umph as|you sang|His birth, “Christ the|
 [G,,G,]8 || G,3 E, (C,D,)(E,F,) | (G,2 C2) G,4 | [G,C]3 [G,C] [G,C]2 [^G,B,]2 | [A,C]8 | %20
w: Lord|is ris- en, * peace, *|on * earth!”|||
 [C,_B,]3 [C,B,] [C,B,]2 [C,B,]2 | [F,A,]4 [F,C]4 | [G,C]3 G, [G,,G,]2 (G,F,) | [C,E,]8 |] %24
w: ||||
V:4
 G,3 E, C,2 E,2 | G,2 C2 G,4 | x8 | x8 | A,3 E, C,2 E,2 | A,2 C2 A,4 | x8 | x8 | x8 | x8 | x8 | %11
w: ~ ~ ~ ~|~ ~ ~|||~ ~ ~ ~|~ ~ ~||||||
 x8 | x8 | x8 | x8 | x8 || G,3 E, x4 | G,2 C2 G,4 | x8 | x8 | x8 | x8 | x6 G,,2 | x8 |] %24
w: |||||good- will||||||||

